BookReader/images/icon_share.svg

<?xml version="1.0" encoding="UTF-8" standalone="no"?>
<svg width="23px" height="20px" viewBox="0 0 23 20" version="1.1" xmlns="http://www.w3.org/2000/svg" xmlns:xlink="http://www.w3.org/1999/xlink" aria-labelledby="shareTitleID shareDescID">
  <title id="shareTitleID">Share icon</title>
  <desc id="shareDescID">Illustration of a square with an arrow arcing out of the square from its center</desc>
  <g stroke="none" stroke-width="1" fill="#fff" fill-rule="evenodd">
    <path d="M2.32531041,19.4251339 C1.04336742,19.4251339 0,18.328648 0,16.9798489 L0,4.06471403 C0,2.71660181 1.04336742,1.61988688 2.32531041,1.61988688 L15.2720416,1.61988688 L9.43770136,4.09310498 L2.32576833,4.09310498 L2.37751312,16.979391 L15.9648724,16.950771 L15.9128986,15.2097647 L18.2915566,13.3684742 L18.2915566,16.9796199 C18.2915566,18.328648 17.2481891,19.4251339 15.9648724,19.4251339 L2.32531041,19.4251339 Z"></path>
    <path d="M15.860238,9.33581448 C10.3061439,9.29986787 6.15602805,12.5645982 6.15602805,12.5645982 C6.15602805,12.5645982 6.8135991,5.34322262 15.877181,3.56283529 L15.877181,0 L22.8959276,6.62470769 L19.4830606,9.83586154 L15.877181,13.2393412 L15.860238,9.33581448 Z"></path>
  </g>
</svg>

<svg width="23" height="20" xmlns="http://www.w3.org/2000/svg" aria-labelledby="shareTitleID shareDescID"><g fill="#fff" fill-rule="evenodd"><path d="M2.325 19.425C1.043 19.425 0 18.33 0 16.98V4.065C0 2.717 1.043 1.62 2.325 1.62h12.947L9.438 4.093H2.326l.052 12.886 13.587-.028-.052-1.741 2.379-1.842v3.612c0 1.349-1.044 2.445-2.327 2.445H2.325z"/><path d="M15.86 9.336c-5.554-.036-9.704 3.229-9.704 3.229s.658-7.222 9.721-9.002V0l7.019 6.625-3.413 3.21-3.606 3.404-.017-3.903z"/></g></svg>
